templates/main/source/images/big/truck-pay.svg

<?xml version="1.0" encoding="UTF-8"?>
<svg width="40px" height="40px" viewBox="0 0 40 40" version="1.1" xmlns="http://www.w3.org/2000/svg" xmlns:xlink="http://www.w3.org/1999/xlink">
    <!-- Generator: Sketch 52.5 (67469) - http://www.bohemiancoding.com/sketch -->
    <title>truck-pay</title>
    <desc>Created with Sketch.</desc>
    <g id="Page-1" stroke="none" stroke-width="1" fill="none" fill-rule="evenodd">
        <g id="02---02---Карточка_варианты_desktop" transform="translate(-732.000000, -313.000000)">
            <g id="1" transform="translate(132.000000, 49.000000)">
                <g id="цена-и-информация" transform="translate(600.000000, 104.000000)">
                    <g id="truck" transform="translate(0.000000, 160.000000)">
                        <g>
                            <rect id="Rectangle" fill="#F1F1F1" x="0" y="0" width="40" height="40" rx="2"></rect>
                            <g id="delivery-truck" transform="translate(5.000000, 5.000000)">
                                <rect id="Rectangle-4" x="0" y="0" width="30" height="30"></rect>
                                <path d="M1.05264706,17.8703844 L1.05264706,4.66228934 C1.05264706,3.92834284 1.62759804,3.33333333 2.33691176,3.33333333 L15.0942647,3.33333333 C15.8035294,3.33333333 16.3784804,3.92834284 16.3784804,4.66228934 L16.3784804,17.8704351 C16.3784804,18.1150839 16.1868627,18.3134204 15.9503922,18.3134204 L1.48073529,18.3134204 C1.24426471,18.3134204 1.05264706,18.1150839 1.05264706,17.8703844 Z M11.3546078,22.3951958 C11.3546078,23.9174665 10.1620098,25.1515152 8.69098039,25.1515152 C7.21995098,25.1515152 6.02735294,23.9174665 6.02735294,22.3951958 C6.02735294,20.8728743 7.21995098,19.6388764 8.69098039,19.6388764 C10.1620098,19.6388764 11.3546078,20.8728743 11.3546078,22.3951958 Z M10.0227451,22.3951958 C10.0227451,21.6340604 9.42647059,21.0170361 8.69093137,21.0170361 C7.95539216,21.0170361 7.35906863,21.6340604 7.35906863,22.3951958 C7.35906863,23.1563311 7.95539216,23.7734062 8.69093137,23.7734062 C9.42647059,23.7734062 10.0227451,23.1563311 10.0227451,22.3951958 Z M6.39681373,19.6388257 L0.428088235,19.6388257 C0.191666667,19.6388257 0,19.8371622 0,20.081811 L0,21.4257817 C0,21.6704306 0.191666667,21.8687671 0.428088235,21.8687671 L5.21230392,21.8687671 C5.33720588,20.9818833 5.76980392,20.1984795 6.39681373,19.6388257 Z M25.2910784,22.3951958 C25.2910784,23.9174665 24.0984804,25.1515152 22.627451,25.1515152 C21.1563725,25.1515152 19.9638235,23.9174665 19.9638235,22.3951958 C19.9638235,20.8728743 21.1563725,19.6388764 22.627451,19.6388764 C24.0984804,19.6388257 25.2910784,20.8728743 25.2910784,22.3951958 Z M23.9593137,22.3951958 C23.9593137,21.6340604 23.3629902,21.0170361 22.627451,21.0170361 C21.8918627,21.0170361 21.2956373,21.6340604 21.2956373,22.3951958 C21.2956373,23.1563311 21.8919118,23.7734062 22.627451,23.7734062 C23.3629902,23.7734062 23.9593137,23.1563311 23.9593137,22.3951958 Z M30,20.081811 L30,21.4257817 C30,21.6704306 29.8083333,21.8687671 29.5719118,21.8687671 L26.1060294,21.8687671 C25.8581373,20.1094564 24.394951,18.752855 22.627549,18.752855 C20.8598039,18.752855 19.3965686,20.1095071 19.1486765,21.8687671 L12.1696569,21.8687671 C12.0447059,20.9819341 11.6121569,20.1984795 10.9851471,19.6388257 L17.6025,19.6388257 L17.6025,6.9680653 C17.6025,6.47876763 17.9858333,6.08209463 18.4586765,6.08209463 L22.500098,6.08209463 C23.6380392,6.08209463 24.7016176,6.66700977 25.3383333,7.64291666 L27.9437255,11.6360746 C28.3258824,12.2218014 28.530098,12.9123776 28.530098,13.6191353 L28.530098,19.6388257 L29.5719118,19.6388257 C29.8083333,19.6388257 30,19.8371622 30,20.081811 Z M25.6572549,11.7383371 L23.5738725,8.67487517 C23.4936765,8.55698923 23.3630882,8.48683594 23.2237745,8.48683594 L19.9740196,8.48683594 C19.7376471,8.48683594 19.5459314,8.68517244 19.5459314,8.92982127 L19.5459314,11.9932832 C19.5459314,12.2379828 19.737598,12.4362686 19.9740196,12.4362686 L25.3072549,12.4362686 C25.6540196,12.4362686 25.8568627,12.0318346 25.6572549,11.7383371 Z" id="Shape" fill="#666666" fill-rule="nonzero"></path>
                            </g>
                        </g>
                    </g>
                </g>
            </g>
        </g>
    </g>
</svg>

<svg width="40" height="40" viewBox="0 0 40 40" xmlns="http://www.w3.org/2000/svg" xmlns:xlink="http://www.w3.org/1999/xlink"><g id="Page-1" stroke="none" stroke-width="1" fill="none" fill-rule="evenodd"><g id="02---02---Карточка_варианты_desktop" transform="translate(-732 -313)"><g id="1" transform="translate(132 49)"><g id="цена-и-информация" transform="translate(600 104)"><g transform="translate(0 160)" id="truck"><rect id="Rectangle" fill="#F1F1F1" x="0" y="0" width="40" height="40" rx="2"/><g id="delivery-truck" transform="translate(5 5)"><path id="Rectangle-4" d="M0 0h30v30H0z"/><path d="M1.053 17.87V4.662c0-.734.575-1.329 1.284-1.329h12.757c.71 0 1.284.595 1.284 1.33V17.87a.436.436 0 01-.428.443H1.48a.436.436 0 01-.427-.443zm10.302 4.525c0 1.522-1.193 2.757-2.664 2.757s-2.664-1.235-2.664-2.757S7.22 19.64 8.691 19.64s2.664 1.234 2.664 2.756zm-1.332 0c0-.76-.597-1.378-1.332-1.378-.736 0-1.332.617-1.332 1.378 0 .761.596 1.378 1.332 1.378.735 0 1.332-.617 1.332-1.378zM6.397 19.64H.428a.436.436 0 00-.428.443v1.344c0 .244.192.443.428.443h4.784a3.671 3.671 0 011.185-2.23zm18.894 2.756c0 1.522-1.193 2.757-2.664 2.757-1.47 0-2.663-1.235-2.663-2.757s1.192-2.756 2.663-2.756c1.471 0 2.664 1.234 2.664 2.756zm-1.332 0c0-.76-.596-1.378-1.332-1.378-.735 0-1.331.617-1.331 1.378 0 .761.596 1.378 1.331 1.378.736 0 1.332-.617 1.332-1.378zM30 20.082v1.344a.436.436 0 01-.428.443h-3.466c-.248-1.76-1.711-3.116-3.478-3.116-1.768 0-3.231 1.357-3.48 3.116H12.17a3.672 3.672 0 00-1.185-2.23h6.617V6.969c0-.49.384-.887.857-.887H22.5c1.138 0 2.202.585 2.838 1.56l2.606 3.994c.382.586.586 1.276.586 1.983v6.02h1.042c.236 0 .428.198.428.443zm-4.343-8.344l-2.083-3.063a.424.424 0 00-.35-.188h-3.25a.436.436 0 00-.428.443v3.063c0 .245.192.443.428.443h5.333c.347 0 .55-.404.35-.698z" id="Shape" fill="#666" fill-rule="nonzero"/></g></g></g></g></g></g></svg>
